X: 4861
T:Middle Island Hornpipe
M:2/4
L:1/16
C:H.Scoot
S:The Maritime Fiddler
K:D
fe|:"D"dcdA FABA|"G"GFGD "Em"B,2ED|"A7"CEA,C EA,CE|"D"DEFG A2fe|!
dcdA FABA|"G"GFGD "Em"B,2ED|"A7"CEA,C EA,CE|"D"D2DD D:||!
FG|:AFDF Acdc|"G"BGDG BdcB|"D"AFDF AFDF|"a7"GFED E2FG|!
"D"AFDF Acdc|"G"BGDG BdcB|"A7"Acef (3gbe ce|d2dd d:||!
